!!!!SEGMENT: pl-cz--iii-47--009_bulakowski-stefan--msza-as-pleni.krn
!!!cenid: 18xx:700
!!!COM: Bułakowski, Stefan
!!!COM-rismid: pe30085804
!!!CDT: 1784-1852
!!!CNT:
!!!OPR: Msza As
!!!OTL: Pleni
!!!OMV: 009
!!!PDT:
!!!AGN: Sacred; Mass
!!!SMS-siglum: PL-CZ
!!!SMS-shelfmark: III-47
!!!SMS-shelfwork: 001-009 M
!!!SMS-variant:
!!!SMS-altvar:
!!!NIFC-rismid: 300000053
!!!URL-scan: http://repozytorium.nifc.pl/skany/pl-cz-nut--iii-47
!!!ONB-nifc: UWAGA: części Mszy: Kyrie, Gloria, Justus ut palma, Credo, Et incarnatus, Et resurrexit,
!!!key:
**kern	**text	**kern	**text	**kern	**text	**dynam	**kern	**dynam	**kern	**dynam	**kern	**dynam	**kern	**dynam	**kern	**dynam	**kern	**dynam	**kern	**dynam
*part10	*part10	*part9	*part9	*part8	*part8	*part8	*part7	*part7	*part6	*part6	*part5	*part5	*part4	*part4	*part3	*part3	*part2	*part2	*part1	*part1
*staff10	*staff10	*staff9	*staff9	*staff8	*staff8	*	*staff7	*	*staff6	*	*staff5	*	*staff4	*	*staff3	*	*staff2	*	*staff1	*
*Iempty	*	*Itenor	*	*Itenor	*	*	*Itromt	*	*Icor	*	*Icor	*	*Ifagot	*	*Ifagot	*	*Iclars	*	*Iclars	*
*I"Baſso.	*	*I"Tenore 2.do	*	*I"Tenore 1mo	*	*	*I"Trombone.	*	*I"Corno. 2do in As.	*	*I"Corno 1mo in As.	*	*I"Fagotto. 2do	*	*I"Fagotto 1mo	*	*I"Clarinetto. 2do in B.	*	*I"Clarinetto. 1mo in B.	*
*I'B	*	*I'T 2	*	*I'T 1	*	*	*I'trb	*	*I'cor 2	*	*I'cor 1	*	*I'fag 2	*	*I'fag 1	*	*I'cl 2	*	*I'cl 1	*
*group3	*	*group3	*	*group3	*	*	*group2	*	*group2	*	*group2	*	*group1	*	*group1	*	*group1	*	*group1	*
*clefF4	*	*clefC4	*	*clefC4	*	*	*clefF4	*	*clefG2	*	*clefG2	*	*clefF4	*	*clefF4	*	*clefG2	*	*clefG2	*
*	*	*	*	*	*	*	*	*	*ITrd5c9	*	*ITrd5c9	*	*	*	*	*	*ITrd1c2	*	*ITrd1c2	*
*k[b-e-]	*	*k[b-e-]	*	*k[b-e-]	*	*	*k[b-e-]	*	*k[b-e-]	*	*k[b-e-]	*	*k[b-e-]	*	*k[b-e-]	*	*k[b-e-]	*	*k[b-e-]	*
*B-:	*	*B-:	*	*B-:	*	*	*B-:	*	*B-:	*	*B-:	*	*B-:	*	*B-:	*	*B-:	*	*B-:	*
*M4/4	*	*M4/4	*	*M4/4	*	*	*M4/4	*	*M4/4	*	*M4/4	*	*M4/4	*	*M4/4	*	*M4/4	*	*M4/4	*
*met(c)	*	*met(c)	*	*met(c)	*	*	*met(c)	*	*met(c)	*	*met(c)	*	*met(c)	*	*met(c)	*	*met(c)	*	*met(c)	*
=1	=1	=1	=1	=1	=1	=1	=1	=1	=1	=1	=1	=1	=1	=1	=1	=1	=1	=1	=1	=1
*2\right	*	*2\right	*	*2\right	*	*	*2\right	*	*2\right	*	*2\right	*	*2\right	*	*2\right	*	*2\right	*	*2\right	*
!LO:TX:b:t=Pleni	!	!	!	!	!	!LO:DY:b	!	!LO:DY:b	!LO:TX:a:t=Allegro	!LO:DY:b	!LO:TX:a:t=Allegro	!LO:DY:b	!	!LO:DY:b	!	!LO:DY:b	!	!LO:DY:b	!	!LO:DY:b
!LO:TX:a:t=Allegro	!	!LO:TX:b:t=Pleni	!	!LO:TX:a:t=Allegro.	!	!	!LO:TX:a:t=Allegro.	!	!LO:TX:b:t=Pleni	!	!LO:TX:b:t=Pleni	!	!LO:TX:b:t=Pleni	!	!LO:TX:b:t=Pleni	!	!LO:TX:b:t=Pleni	!	!LO:TX:b:t=Pleni	!
!LO:TX:a:t=P:problem=3 bemole BB- E- AA-	!	!LO:TX:a:t=Allegro.	!	!LO:TX:b:t=Pleni	!	!	!LO:TX:b:t=Pleni	!	!LO:TX:a:t=P:problem=brak krzyżyka przy kluczu	!	!LO:TX:a:t=P:problem=brak krzyżyka przy kluczu	!	!LO:TX:a:t=Allegro	!	!LO:TX:a:t=Allegro	!	!LO:TX:a:t=Allegro.	!	!LO:TX:a:t=Allegro.	!
[4.B-\	Ple-	[4.B-\	Ple-	(4.B-\	Ple-	f	4.BB-/	f	4.B-/	f	4.f\	f	4.B-\	f	4.d\	f	4.f/	f	4.b-\	f
8B-\]	.	8B-\]	.	8c\)	.	.	8BB-/	.	8B-/	.	8f\	.	8B-\	.	8d\	.	8f/	.	8cc\	.
4B-\	-ni	4B-\	-ni	4d\	-ni	.	4BB-/	.	4B-/	.	4f\	.	4B-\	.	4d\	.	4f/	.	4dd\	.
4B-\	sunt	4B-\	sunt	4B-\	sunt	.	4BB-/	.	4B-/	.	4f\	.	4B-\	.	4d\	.	4f/	.	4b-\	.
=2	=2	=2	=2	=2	=2	=2	=2	=2	=2	=2	=2	=2	=2	=2	=2	=2	=2	=2	=2	=2
2F\	cae-	(4B-\	cae-	2f\	cae-	.	2F\	.	2f\	.	2f\	.	2F\	.	2c\	.	4b-\	.	2ff\	.
.	.	8A\L	.	.	.	.	.	.	.	.	.	.	.	.	.	.	8a\L	.	.	.
.	.	8G\J)	.	.	.	.	.	.	.	.	.	.	.	.	.	.	8g\J	.	.	.
2F\	-li	(4A\	-li	2F/	-li	.	2F\	.	2f\	.	2f\	.	2F\	.	4A\	.	4a\	.	2f/	.
.	.	4F\)	.	.	.	.	.	.	.	.	.	.	.	.	4F\	.	4f/	.	.	.
=3	=3	=3	=3	=3	=3	=3	=3	=3	=3	=3	=3	=3	=3	=3	=3	=3	=3	=3	=3	=3
[4.G\	cae-	[4.G\	cae-	(4.G\	cae-	.	4.G\	.	4.G/	.	4.g\	.	4.G\	.	4.B-\	.	4.d/	.	4.g\	.
8G\]	.	8G\]	.	8A\)	.	.	8G\	.	8G/	.	8g\	.	8G\	.	8B-\	.	8d/	.	8a\	.
4G\	-li	4G\	-li	4B-\	-li	.	4G\	.	4G/	.	4g\	.	4G\	.	4B-\	.	4d/	.	4b-\	.
4G\	et	4G\	et	4G\	et	.	4G\	.	4G/	.	4g\	.	4G\	.	4B-\	.	4d/	.	4g\	.
!	!	!LO:LB:g=original	!	!	!	!	!	!	!	!	!	!	!	!	!	!	!	!	!	!
=4	=4	=4	=4	=4	=4	=4	=4	=4	=4	=4	=4	=4	=4	=4	=4	=4	=4	=4	=4	=4
2D\	ter-	(4G/	ter-	2d\	ter-	.	2D\	.	2AnX/	.	2f#X\	.	2D\	.	2A\	.	4g/	.	2dd\	.
.	.	8F#X/L	.	.	.	.	.	.	.	.	.	.	.	.	.	.	8f#X/L	.	.	.
.	.	8En/J)	.	.	.	.	.	.	.	.	.	.	.	.	.	.	8eX/J	.	.	.
2D\	-ra	(4F#/	-ra	2D/	-ra	.	2D\	.	2r	.	2r	.	2D\	.	2D\	.	4f#/	.	2d/	.
.	.	4D/)	.	.	.	.	.	.	.	.	.	.	.	.	.	.	4d/	.	.	.
!LO:LB:g=original	!	!	!	!LO:LB:g=original	!	!	!	!	!LO:LB:g=original	!	!	!	!LO:LB:g=original	!	!LO:LB:g=original	!	!LO:LB:g=original	!	!	!
=5	=5	=5	=5	=5	=5	=5	=5	=5	=5	=5	=5	=5	=5	=5	=5	=5	=5	=5	=5	=5
[4.E-\	Glo-	4.E-X/	glo-	(4.E-/	glo-	.	4.E-\	.	4.E-/	.	4.G/	.	4.E-\	.	4.G\	.	4.B-/	.	4.e-/	.
8E-\]	.	8E-/	.	8G/)	.	.	8E-\	.	8G/	.	8B-/	.	8E-\	.	8G\	.	8e-/	.	8g/	.
4E-\	-ri-	4G\	-ri-	4B-\	-ri-	.	4E-\	.	4B-/	.	4e-\	.	4E-\	.	4G\	.	4g/	.	4b-\	.
4E-\	-a	4B-\	-a	4g\	-a	.	4E-\	.	4e-\	.	4g\	.	4E-\	.	4G\	.	4b-\	.	4gg\	.
!	!	!	!	!	!	!	!	!	!	!	!LO:LB:g=original	!	!	!	!	!	!	!	!LO:LB:g=original	!
=6	=6	=6	=6	=6	=6	=6	=6	=6	=6	=6	=6	=6	=6	=6	=6	=6	=6	=6	=6	=6
4.F\	glo-	2d\	glo-	2f\	Glo-	.	4BB-/	.	4B-/	.	4f\	.	4BB-/	.	4F\	.	2dd\	.	2ff\	.
.	.	.	.	.	.	.	4r	.	4r	.	4r	.	4d\	.	4f\	.	.	.	.	.
8F\	-ri-	.	.	.	.	.	.	.	.	.	.	.	.	.	.	.	.	.	.	.
4F\	-a	(8c\L	-ri-	(8e-\L	-ri-	.	2r	.	2r	.	2r	.	8c\L	.	8e-\L	.	8cc\L	.	8ee-\L	.
.	.	8B-\J)	.	8d\J)	.	.	.	.	.	.	.	.	8B-\	.	8d\	.	8b-\	.	8dd\	.
4r	.	(8A\L	-a	(8c\L	-a	.	.	.	.	.	.	.	8A\	.	8c\	.	8a\	.	8cc\	.
.	.	8B-\J)	.	8B-\J)	.	.	.	.	.	.	.	.	8B-\J	.	8B-\J	.	8b-\J	.	8b-\J	.
!	!	!	!	!	!	!	!LO:LB:g=original	!	!	!	!	!	!	!	!	!	!	!	!	!
=7	=7	=7	=7	=7	=7	=7	=7	=7	=7	=7	=7	=7	=7	=7	=7	=7	=7	=7	=7	=7
(8E-\L	glo-	4F/	glo-	(8A\L	glo-	.	2r	.	2f\	.	2f\	.	8E-\L	.	8e-\L	.	2f/	.	8a\L	.
8D\J)	.	.	.	8B-\J)	.	.	.	.	.	.	.	.	8D\	.	8d\	.	.	.	8b-\	.
8C/	-ri-	8F/	-ri-	8c\	-ri-	.	.	.	.	.	.	.	8C\	.	8c\	.	.	.	8cc\	.
8BB-/	-a	8F/	-a	8d\	-a	.	.	.	.	.	.	.	8BB-\J	.	8B-\J	.	.	.	8dd\J	.
(4AA/	tu-	2F/	tu-	(4e-\	tu-	.	4AA/	.	4f\	.	4f\	.	4AA/	.	4A\	.	4f/	.	4ee-\	.
4BB-/)	.	.	.	4d\)	.	.	4BB-/	.	4f\	.	4f\	.	4BB-/	.	4B-\	.	4f/	.	4dd\	.
!	!	!LO:LB:g=original	!	!	!	!	!	!	!	!	!	!	!	!	!	!	!	!	!	!
=8	=8	=8	=8	=8	=8	=8	=8	=8	=8	=8	=8	=8	=8	=8	=8	=8	=8	=8	=8	=8
4F\	-a	4A\	-a	4c\	-a	.	4F\	.	4f\	.	4f\	.	4FF/	.	4F\	.	4f/	.	4cc\	.
4r	.	4r	.	4r	.	.	4r	.	4r	.	4r	.	4r	.	4r	.	8r	.	8r	.
.	.	.	.	.	.	.	.	.	.	.	.	.	.	.	.	.	8f/	.	8ff\	.
2r	.	2r	.	2r	.	.	2r	.	2r	.	2r	.	2r	.	2r	.	8eX/L	.	8eeX\L	.
.	.	.	.	.	.	.	.	.	.	.	.	.	.	.	.	.	8f/	.	8ff\	.
.	.	.	.	.	.	.	.	.	.	.	.	.	.	.	.	.	8g/	.	8gg\	.
.	.	.	.	.	.	.	.	.	.	.	.	.	.	.	.	.	8f/J	.	8ff\J	.
!LO:LB:g=original	!	!	!	!LO:LB:g=original	!	!	!	!	!	!	!	!	!	!	!	!	!	!	!	!
=9	=9	=9	=9	=9	=9	=9	=9	=9	=9	=9	=9	=9	=9	=9	=9	=9	=9	=9	=9	=9
4F\	glo-	(8c\L	glo-	(8e-\L	glo-	.	4F\	.	4f\	.	4f\	.	8c\L	.	8e-\L	.	8cc\L	.	8ee-\L	.
.	.	8B-\J)	.	8d\J)	.	.	.	.	.	.	.	.	8B-\	.	8d\	.	8b-\	.	8dd\	.
8G\	-ri-	8A\	-ri-	8c\	-ri-	.	8F\L	.	8f\L	.	8f\L	.	8A\	.	8c\	.	8a\	.	8cc\	.
8F\	-a	8B-\	-a	8d\	-a	.	8F\J	.	8f\J	.	8f\J	.	8B-\J	.	8d\J	.	8b-\J	.	8dd\J	.
2F\	tu-	(4c\	tu-	(4e-\	tu-	.	4F\	.	4f\	.	4f\	.	4c\	.	4e-\	.	4cc\	.	4ee-\	.
.	.	4A\)	.	4f\)	.	.	4F\	.	4f\	.	4f\	.	4A\	.	4c\	.	4a\	.	4ff\	.
!	!	!	!	!	!	!	!	!	!LO:LB:g=original	!	!	!	!LO:LB:g=original	!	!LO:LB:g=original	!	!	!	!	!
=10	=10	=10	=10	=10	=10	=10	=10	=10	=10	=10	=10	=10	=10	=10	=10	=10	=10	=10	=10	=10
4B-\	-a	4B-\	-a	4d\	-a	.	4BB-/	.	4B-/	.	4f\	.	4B-\	.	4d\	.	4b-\	.	8dd\L	.
.	.	.	.	.	.	.	.	.	.	.	.	.	.	.	.	.	.	.	8ff\	.
4r	.	4r	.	4r	.	.	4r	.	4r	.	4r	.	4r	.	4r	.	4r	.	8bb-\	.
.	.	.	.	.	.	.	.	.	.	.	.	.	.	.	.	.	.	.	8aa\J	.
2r	.	2r	.	2r	.	.	2r	.	2r	.	2r	.	2r	.	2r	.	2r	.	8gg\L	.
.	.	.	.	.	.	.	.	.	.	.	.	.	.	.	.	.	.	.	8ff\	.
.	.	.	.	.	.	.	.	.	.	.	.	.	.	.	.	.	.	.	8ee-\	.
.	.	.	.	.	.	.	.	.	.	.	.	.	.	.	.	.	.	.	8dd\J	.
!	!	!	!	!	!	!	!	!	!	!	!	!	!	!	!	!	!	!	!LO:LB:g=original	!
=11	=11	=11	=11	=11	=11	=11	=11	=11	=11	=11	=11	=11	=11	=11	=11	=11	=11	=11	=11	=11
4F\	glo-	(8E-/L	glo-	(8c\L	glo-	.	4F\	.	4f\	.	4f\	.	8E-\L	.	8c\L	.	8e-/L	.	8cc\L	.
.	.	8D/J)	.	8B-\J)	.	.	.	.	.	.	.	.	8D\	.	8B-\	.	8d/	.	8b-\	.
8F\	-ri-	8C/	-ri-	8A\	-ri-	.	8F\L	.	8f\L	.	8f\L	.	8C\	.	8A\	.	8c/	.	8a\	.
8F\	-a	8D/	-a	8B-\	-a	.	8F\J	.	8f\J	.	8f\J	.	8D\J	.	8B-\J	.	8d/J	.	8b-\J	.
[4F\	tu-	[4E-/	tu-	(4c\	tu-	.	4F\	.	4f\	.	4f\	.	4E-\	.	4c\	.	4e-/	.	4cc\	.
4F\]	.	4E-/]	.	4d\)	.	.	4F\	.	4f\	.	4f\	.	4F\	.	4d\	.	4e-/	.	4dd\	.
=12	=12	=12	=12	=12	=12	=12	=12	=12	=12	=12	=12	=12	=12	=12	=12	=12	=12	=12	=12	=12
4BB-/	-a	4D/	-a	4B-\	-a	.	4BB-/	.	4B-/	.	4f\	.	4BB-/	.	4B-\	.	4d/	.	4b-\	.
4r	.	4r	.	4r	.	.	4r	.	4r	.	4r	.	4r	.	4r	.	4r	.	4r	.
2r	.	2r	.	2r	.	.	4BB-/	.	4B-/	.	4f\	.	4B-\	.	4B-\	.	4dd\	.	4bb-\	.
.	.	.	.	.	.	.	4r	.	4r	.	4r	.	4r	.	4r	.	4r	.	4r	.
!	!	!	!	!	!	!	!	!	!	!	!	!	!	!	!	!	!LO:LB:g=original	!	!	!
=13	=13	=13	=13	=13	=13	=13	=13	=13	=13	=13	=13	=13	=13	=13	=13	=13	=13	=13	=13	=13
!LO:TX:a:t=1.	!	!LO:TX:a:t=1.	!	!LO:TX:a:t=1.	!	!	!	!	!	!	!	!	!	!	!	!	!	!	!	!
1r	.	1r	.	1r	.	.	2BB-/	.	2B-/	.	2f\	.	2BB-/	.	2B-\	.	2d/	.	2b-\	.
.	.	.	.	.	.	.	2r	.	2r	.	2r	.	2r	.	2r	.	2r	.	2r	.
==;;	==	==;;	==	==;;	==	==	==;;	==;;	==;;	==	==;;	==	==;;	==	==;;	==	==;;	==	==;;	==
*-	*-	*-	*-	*-	*-	*-	*-	*-	*-	*-	*-	*-	*-	*-	*-	*-	*-	*-	*-	*-
!!!system-decoration: [(g1)][(g2)][(g3)]
!!!AIN: 2 clars 2 cor 1 empty 2 fagot 2 tenor 1 tromt
!!!ENC: Anna Matuszewska
!!!END: 2020-12-28
!!!ENC: Marcin Jachim
!!!END: 2020-07-02
